Sources/FrostedUI/Resources/Icons.xcassets/participants32.imageset/participants-32.svg

<svg width="32" height="32" viewBox="0 0 32 32" fill="none" xmlns="http://www.w3.org/2000/svg" data-fui-icon="true">
  <path
    d="M14.0002 18.75C17.0563 18.75 19.3274 19.3851 21.0081 20.3633C22.6916 21.3432 23.7389 22.6421 24.384 23.8965C25.2855 25.6496 24.1478 27.5108 22.4495 28.0127C20.5124 28.5851 17.5083 29.25 14.0002 29.25C10.4922 29.25 7.48813 28.5851 5.55103 28.0127C3.85259 27.5108 2.71493 25.6497 3.61646 23.8965C4.26164 22.6421 5.30883 21.3432 6.99243 20.3633C8.6731 19.3851 10.9442 18.75 14.0002 18.75ZM14.0002 20.25C11.1535 20.25 9.15484 20.8402 7.74731 21.6592C6.34283 22.4766 5.4825 23.5476 4.95044 24.582C4.56822 25.3252 4.98225 26.2805 5.97583 26.5742C7.81857 27.1187 10.6755 27.75 14.0002 27.75C17.3251 27.75 20.182 27.1187 22.0247 26.5742C23.0181 26.2805 23.4322 25.3251 23.05 24.582C22.518 23.5477 21.6576 22.4766 20.2532 21.6592C18.8457 20.8401 16.847 20.25 14.0002 20.25ZM22.2883 15.7627C22.4193 15.3698 22.8446 15.1571 23.2375 15.2881C26.3088 16.3119 28.4606 17.3743 30.5862 20.0312C30.8448 20.3547 30.7923 20.8272 30.469 21.0859C30.1456 21.3447 29.6731 21.2921 29.4143 20.9688C27.5399 18.6258 25.6915 17.6881 22.7629 16.7119C22.37 16.5809 22.1573 16.1557 22.2883 15.7627ZM14.0002 2.75C17.4519 2.7501 20.2502 5.54828 20.2502 9C20.2502 12.4517 17.4519 15.2499 14.0002 15.25C10.5485 15.25 7.75024 12.4518 7.75024 9C7.75024 5.54822 10.5485 2.75 14.0002 2.75ZM14.0002 4.25C11.3769 4.25 9.25024 6.37665 9.25024 9C9.25024 11.6234 11.3769 13.75 14.0002 13.75C16.6235 13.7499 18.7502 11.6233 18.7502 9C18.7502 6.37671 16.6235 4.2501 14.0002 4.25ZM21.5002 0.75C24.9519 0.750103 27.7502 3.54828 27.7502 7C27.7502 8.33688 27.3296 9.57783 26.6135 10.5947C26.3751 10.9333 25.9072 11.0146 25.5686 10.7764C25.23 10.5379 25.1486 10.0701 25.387 9.73145C25.9308 8.95906 26.2502 8.01779 26.2502 7C26.2502 4.37671 24.1235 2.2501 21.5002 2.25C21.086 2.25 20.7502 1.91421 20.7502 1.5C20.7502 1.08579 21.086 0.75 21.5002 0.75Z"
    fill="currentColor"
  />
</svg>

<svg xmlns="http://www.w3.org/2000/svg" width="32" height="32" fill="none" data-fui-icon="true" viewBox="0 0 32 32"><path fill="currentColor" d="M14 18.75c3.056 0 5.327.635 7.008 1.613a8.6 8.6 0 0 1 3.376 3.534c.901 1.753-.236 3.614-1.934 4.116-1.938.572-4.942 1.237-8.45 1.237s-6.512-.665-8.449-1.237c-1.698-.502-2.836-2.363-1.935-4.117a8.6 8.6 0 0 1 3.376-3.533c1.681-.978 3.952-1.613 7.008-1.613m0 1.5c-2.847 0-4.845.59-6.253 1.41a7.1 7.1 0 0 0-2.797 2.922c-.382.743.032 1.698 1.026 1.992 1.843.545 4.7 1.176 8.024 1.176 3.325 0 6.182-.631 8.025-1.176.993-.294 1.407-1.249 1.025-1.992a7.1 7.1 0 0 0-2.797-2.923C18.846 20.84 16.847 20.25 14 20.25m8.288-4.487a.75.75 0 0 1 .95-.475c3.07 1.024 5.223 2.086 7.348 4.743a.75.75 0 0 1-1.172.938c-1.874-2.343-3.722-3.28-6.651-4.257a.75.75 0 0 1-.475-.95M14 2.75a6.25 6.25 0 1 1 0 12.5 6.25 6.25 0 0 1 0-12.5m0 1.5a4.75 4.75 0 1 0 0 9.5 4.75 4.75 0 0 0 0-9.5m7.5-3.5a6.25 6.25 0 0 1 5.113 9.845.75.75 0 0 1-1.226-.864A4.75 4.75 0 0 0 21.5 2.25a.75.75 0 0 1 0-1.5"/></svg>
